src/assets/icons-components/people.svg

<svg width="60" height="60" viewBox="0 0 60 60" fill="none" xmlns="http://www.w3.org/2000/svg">
<path fill-rule="evenodd" clip-rule="evenodd" d="M19.5 24.8889C19.5 22.3528 21.4892 20.25 24 20.25C26.0476 20.25 27.7483 21.6485 28.3061 23.54C28.8358 23.3522 29.4057 23.25 30 23.25C30.5943 23.25 31.1642 23.3522 31.6939 23.54C32.2517 21.6485 33.9524 20.25 36 20.25C38.5108 20.25 40.5 22.3528 40.5 24.8889C40.5 26.3983 39.7953 27.7543 38.6954 28.6048C41.0909 29.6831 42.75 32.1541 42.75 35H41.25C41.25 31.9518 38.874 29.5278 36 29.5278V28.0278C37.6314 28.0278 39 26.6484 39 24.8889C39 23.1294 37.6314 21.75 36 21.75C34.5641 21.75 33.3317 22.8187 33.057 24.2746C34.3139 25.2232 35.125 26.7413 35.125 28.4444C35.125 30.2092 34.2542 31.7753 32.9188 32.7151C35.7566 33.8859 37.75 36.7125 37.75 40H36.25C36.25 36.4757 33.4407 33.6389 30 33.6389C26.5593 33.6389 23.75 36.4757 23.75 40H22.25C22.25 36.7125 24.2434 33.8859 27.0812 32.7151C25.7458 31.7753 24.875 30.2092 24.875 28.4444C24.875 26.7413 25.6861 25.2232 26.943 24.2746C26.6683 22.8187 25.4359 21.75 24 21.75C22.3686 21.75 21 23.1294 21 24.8889C21 26.6484 22.3686 28.0278 24 28.0278V29.5278C21.126 29.5278 18.75 31.9518 18.75 35H17.25C17.25 32.1541 18.9091 29.6831 21.3046 28.6048C20.2047 27.7543 19.5 26.3983 19.5 24.8889ZM30 24.75C28.0091 24.75 26.375 26.3929 26.375 28.4444C26.375 30.496 28.0091 32.1389 30 32.1389C31.9909 32.1389 33.625 30.496 33.625 28.4444C33.625 26.3929 31.9909 24.75 30 24.75Z" fill="#2E2B26"/>
<rect x="0.5" y="0.5" width="59" height="59" stroke="#C3C2C1"/>
</svg>

<svg width="60" height="60" fill="none" xmlns="http://www.w3.org/2000/svg"><path fill-rule="evenodd" clip-rule="evenodd" d="M19.5 24.889c0-2.536 1.99-4.639 4.5-4.639 2.048 0 3.748 1.398 4.306 3.29.53-.188 1.1-.29 1.694-.29.594 0 1.164.102 1.694.29.558-1.892 2.258-3.29 4.306-3.29 2.51 0 4.5 2.103 4.5 4.639 0 1.51-.705 2.865-1.805 3.716 2.396 1.078 4.055 3.55 4.055 6.395h-1.5c0-3.048-2.376-5.472-5.25-5.472v-1.5c1.631 0 3-1.38 3-3.14 0-1.759-1.369-3.138-3-3.138-1.436 0-2.668 1.069-2.943 2.525a5.214 5.214 0 0 1 2.068 4.17c0 1.764-.87 3.33-2.206 4.27 2.838 1.17 4.831 3.997 4.831 7.285h-1.5c0-3.524-2.81-6.361-6.25-6.361S23.75 36.476 23.75 40h-1.5c0-3.288 1.993-6.114 4.831-7.285a5.213 5.213 0 0 1-2.206-4.27c0-1.704.811-3.222 2.068-4.17-.275-1.456-1.507-2.525-2.943-2.525-1.631 0-3 1.38-3 3.139 0 1.76 1.369 3.139 3 3.139v1.5c-2.874 0-5.25 2.424-5.25 5.472h-1.5c0-2.846 1.66-5.317 4.055-6.395a4.691 4.691 0 0 1-1.805-3.716ZM30 24.75c-1.99 0-3.625 1.643-3.625 3.694 0 2.052 1.634 3.695 3.625 3.695 1.99 0 3.625-1.643 3.625-3.695 0-2.051-1.634-3.694-3.625-3.694Z" fill="#2E2B26"/><path stroke="#C3C2C1" d="M.5.5h59v59H.5z"/></svg>
